X:1
T:NƠI NÀY CÓ ANH   SƠN TÙNG M-TP   IGOR PRESNYAKOV   Fingerstyle Guitar Cover
T:NƠI NÀY CÓ ANH   SƠN TÙNG M-TP   IGOR PRESNYAKOV   Fingerstyle Guitar Cover
%%score { 1 | 2 }
L:1/8
Q:1/4=91
M:4/4
K:C
V:1 treble nm="Piano"
V:2 bass 
V:1
 z8 | z4 z2 EF/G/ | z2 EF/G/ z2 EF | z G E/ z/ A z G/F/ E/D/[CE] | D>C E/D/C DC/DE/G | %5
 [EG]3/2D3/2E3/2G3/2 EF/G/ | z2 EF z2 EF/G/ | z G/G/ E/ z/ A/G/ z G/ z/ E/D/C | %8
 D>C E/D/C DD/E/ D/[DE]/C | z2 z/ C z4 z/ | z CDE D/E/D [CD] z | z C C2 z CB z | %12
 z CDE D/E/D [CD] z | z C C2 z CC z | z4 z2 z C/ z/ | z CD z2 z [Cc]2 | z E/ E2- E/ z D/D[CD]3/2 | %17
 z2 z/ C3/2 G2 z2 | z CDE z/ E/D C z | z C2- C/ z z/ C z2 | z CDE D/E/D [CD] z | %21
 z CC3/2 z2 z/ C z | z4 D3 C | z CD z2 z C z | z E/ E2- E/ z z/ D[CD]3/2 | %25
 z2 z/ C z/ [EGc]2 EF/G/ | z z/ G/ EF z z/ C/ EF/G/ | z G E/ z/ A z G E/D/C | %28
 D z/ C/ E/D/C DC/DEE/ | E3/2[DG]3/2E3/2[EG]3/2 EF/G/ | z z/ G/ E/F/F/G/ z z/ C/ E[Ff]/G/ | %31
 z G G/G/A/[G^G]/ z =G E/D/C | D z/ C/ E/D/C DD/E/ D/E/[CD] | z2 z/ C3/2 z C/E/ D[CE] | %34
 C2 z2 D z D[CD] | DE^F z2 CDE | z4 D3 C/ z/ | z z/ C z z/ EC/ z/ DE/C/ | z4 D z DC | %39
 DE>[EG] z [EG][CE]DE | z4 [DB]2 z C | z z/ C z2 z z/ EF/G/ | z2 EF z z/ G/ EF | %43
 z G E/ z/ A/G/ z G E/D/C | D z/ C/ E/D/C DD/E/ D/E/[CD] | z2 z/ F3/2 z2 z z/ C/ | %46
 z C/C/ CC/ z/ DC D/C z/ | z/ CC/ CC/ z z/ C [CD]3/2 z/ | z/ CC z z/ C/C/C/C/ z2 | %49
 C/ z z/ C/ z z/ CC C/ z z/ | z z/ CE z2 CE3/2 | z z/ CE3/2 z z/ C/ z/ [CEg]/[CEc]/ z/ | %52
 C/CC/ d/ z z/ C/CC z z/ | z2 z/ C z/ [EG]2 E/E/F/G/ | z2 EF z2 EF/G/ | %55
 z G E/ z/ A/[G^G]/ z =G E/D/C | D z/ C/ E/D/C DC/DE/G | E3/2D3/2E z/ C3/2 EF/G/ | %58
 z2 EF/G/ z z/ C/ EF/G/ | z G E/ z/ A z G E/D/C | D z/ C/ [CE]/D/C DD E/D/[CE] | %61
 z z/ EC3/2 EC/ z/ DE/C/ | z4 D z DC | DE E/[C^G]/ E2 C DE/C/ | E2 z2 D3 C/ z/ | %65
 z C/C/ z2 z C DE/C/ | z4 D3 C | D[Ee]G E2 CDE | z4 D2 DC/ z/ | z C/C z2 z z/ D/[DEe]/C | %70
 CD<EG/ z2 z z/ C/ z/ | G^F/ z/ E/D/C CD/E/ D/E/C | CD<E z2 z G z | G3/2 z/ E<D [CE]C D<E | %74
 A z4 z A/[AB]G/ | [EG]^C [=CE]3/2 z/ C/[EG][^C^F]/ [=CE]C | DE/ C2- C/ D[DE]/D[DE]/C | %77
 z2 z/ C3/2 z z/ C/ EF/G/ | z2 EF/G/ z2 EF/G/ | z G (3EAG GG/ z/ E/D/C | D>C E/D/C D3/2DE/G | %81
 G/ED/ DE3/2 z z/ E/E/F/G/ | z2 EF/G/ z z/ C/ EF/^F/ | GG [EG]/ z/ A/G/ z G E/D/C/ z/ | %84
 D z/ C/ E/D/C D/E/D D/E/[CD] | z2 z/ C z z/ C/ z/ D[CE] | z4 B2 G3/2 z/ | D E2 E2 CDE | %88
 z4 [Dd]2 z C/ z/ | z z/ C z2 z/ C/ z/ DE/C/ | C2 z2 D2 D[CD] | DEE E2 CDE | z4 [Dd]2 DC | %93
 z C/C z z/ E2 E/E/[Ff]/[EG]/ | z2 EF/G/ z2 EF | z G E/ z/ A/G/ z G/ z/ E/D/C | %96
 D z/ C/ E/D/C DD/E/ D/[DE]/C | z8 | z4 z [Gc]3- | [Gc]8- | [Gc]8- | [Gc]8- | [Gc]8- | [Gc]8- | %104
 [Gc]8- | [Gc]8- | [Gc]8 | %107
V:2
 z4 z2 z D,- | D,6 z2 | F,,>C,, z2 [C,,G,,]2 z2 | A,, z z/ [C,,E,]/ z E,, z/ C,,/ z2 | %4
 F,,>C,, C,,/ z z/ [C,,G,,]C,,/C,, z z/ | C,,3/2 z4 z2 z/ | F,,2 z2 G,,2 z2 | %7
 A,, z z/ [C,,E,]/ z E,, z/ C,,/ z2 | F,,>C,, z2 G,, z2 z | [C,,F,]3/2G, z G,,/ G,2 G,<A, | %10
 [F,,G,]C,, z2 G,,/ z2 z/ B, | [A,,B,] z2 z [E,,E,] z [E,,E,B,]G, | %12
 [F,,G,A,] z2 z G,,/ z z/ G,B,/E,/ | [C,,A,,B,]C,, B,2 E,, z2 B, | [F,,G,A,]4 [G,,G,B,]3 z/ E,/ | %15
 [A,,B,] z2 [E,,C,G,]3 C,2 | [F,,G,A,] z2 z G,,[G,,A,]/[G,,A,] z z/ | %17
 [C,,F,]>G, E,/ z z/ C,,2 G,/A,[C,G,]/ | [G,A,] z [G,,G,] z G,,/ z z/ G,B,/E,/ | %19
 [C,,A,,B,] z2 z/ E,/ [E,,B,] z [E,,B,]G,/F,,/ | [F,,G,A,] z2 z G,,/ z z/ [G,,G,]B,/E,/ | %21
 [C,,G,B,] z B,>G, C,,G, z B,/[E,G,]/ | [F,,A,]2 G,,2 [G,,G,B,]3 [E,G,B,] | %23
 [A,,B,] z2 [E,,C,E,G,]3 z B,/G,/ | [F,,G,] z2 z G,,/G,/A,/A, z z/ | [C,,F,]>G, E,/ z C,/ C,,2 z2 | %26
 F,,>C,, z2 G,,E,/ z2 z/ | A,, z z/ C,,/ z E,, z2 z | F,,C,,/ z2 z/ G,, z/ G,[C,,G,,] z/ | %29
 C,,3/2 z2 z [C,,C,]3/2 z2 | F,,>C,, z2 G,,G,/ z2 z/ | A,, z z/ [C,,G,]/ z E,,G, z2 | %32
 F,,C,,/ z/ C,,/C,,/ z [G,,G,] z2 z | [C,,F,]3/2G, z z/ C,, z/ E,/ z2 | %34
 [F,,G,]2 F,,C,, [G,,B,]G,, z [G,,E,] | A,,A,, z E,, G, z G, z | %36
 [F,,C,G,A,]3 F,, [G,,G,B,]3 z/ E,/ | [C,,B,]E,/C,,C,,3/2 C,, z/ E,/ z2 | %38
 [F,,G,]2 F,,C,, [G,,B,]G,, z G,, | A,,A,,3/2 z/ E,, G, z2 z | [F,,C,G,]4 [G,,B,]2 G,,, z | %41
 [C,,B,]3/2 z F,/E, [C,,,C,,E,G,]2 z2 | F,,>C,, z2 G,,3/2 z2 z/ | A,, z z/ C,,/ z E,,C,, z2 | %44
 F,,C,,/ z2 z/ G,, z2 z | C,,F,/G, z z/ [C,E,G,]2 C,3/2 z/ | %46
 [F,,G,A,] z [G,A,] z/ E,/ [G,,G,B,] z B,/ z E,/ | A,,/ z z/ B, z/ E,/ E,, z2 z/ [F,,E,]/ | %48
 F,,/ z2 [C,,G,]3/2 [C,,G,,]/ z z/ C,,/G,G,/ | C,,/G,G,/ C,,/G,[C,,G,]/ z2 z/ G,3/2 | %50
 F,,/A,/G,/ z2 E,/ [C,,G,,]/G,/B,/ z2 z/ | A,,/G,/G,/ z2 z/ E,,/G,/G,/ z/ G,/G,/G,/E,/ | %52
 [F,,G,]/[F,,G,][F,,G,]/ z/ G,3/2 [G,,G,B,]/[G,B,][G,,G,B,]G,G,/ | [C,,F,]3/2G, z E,/ z4 | %54
 F,,>C,, z2 G,,2 z2 | A,, z z/ C,,/ z E,, z2 z | F,,C,,/ z2 z/ G,, z z/ G,,/ z | %57
 C,,3/2 z2 z/ G,<G, z2 | [F,,,F,,]>C,, z2 G,,3/2 z2 z/ | A,, z z/ [C,,E,]/ z E,,C,, z2 | %60
 F,,C,,/ z C,,/ z [G,,G,] z2 z | [C,,F,]3/2[E,G,] z z/ C,, z/ E,/ z2 | %62
 [F,,G,]F,,F,,C,, [G,,B,]G,,[G,B,][G,,B,] | A,,A,, z E,,2 z2 z | [F,,C,G,]2 G,2 [G,,B,]3 z/ E,/ | %65
 [C,,B,] z C,,/[C,,G,]C,,3/2 z2 z | [F,,G,]2 F,,C,, [G,,G,B,]3 [G,,E,] | A,,A,, z E,,2 z2 z | %68
 [F,,G,A,]3 G,, [G,,G,B,]2 B, z/ E,/ | [C,,B,] z z/ F,E,/ [C,,C,E,G,]2 z2 | %70
 F,, z2 [G,,B,]/A,[G,,D,B,]/A, [D,G,B,]/D,/G,,/E,/ | %71
 C, z/ [C,E,]/ B,,/ z/ C, A,,[G,,G,]/E,/ G,,/ z z/ | %72
 [F,,,F,,C,]A,/ z z/ [G,,^F,G,B,]/A,/ ^G,/[G,,D,=G,B,]/A, [G,,G,B,][C,,G,]/[E,G,^G,]/ | %73
 [C,A,]>E, B,,/ z z/ [C,,A,,]G,, [C,,G,,]/ z z/ | F,,F,,F,,F,, [G,,D,]2 z2 | %75
 C,,E, [E,,E,]>C,, E,/ z2 z/ C, | F,, z2 z [G,,B,] z/ G,, z z/ | %77
 [C,,F,]3/2G,[E,G,]3/2 G,3/2 z2 z/ | F,,>G, C,, z G,,2 z2 | A,, z2 z E,, z/ C,,/ z2 | %80
 F,,3/2 z/ C,,/ z z/ G,,3/2 z2 z/ | [C,,G,]/ z z/ G,,C,,3/2[C,,G,]3/2 z2 | F,,>G, z2 G,,3/2 z2 z/ | %83
 A,, z z/ [C,,G,]/ z E,, z2 z/ E,/ | F,,C,,/ z z/ G, [G,,E,G,]/ z2 z z/ | %85
 [C,,F,]>G, E,/ z E,/ C,,E,/E,/ z E, | [A,,E,G,]A,, [A,,C,E,]2 [G,,E,G,]2 [C,,E,]>G,, | %87
 A,, z2 E,,2 z2 z | [F,,G,]4 [G,,G,B,]2 G, z/ E,/ | [C,,B,]3/2 z G,3/2 [C,,G,,] z/ E,/ z C,,/ z/ | %90
 [F,,G,]2 C,C,, [G,,G,B,]2 B,E, | A,,A,, z E,,2 z C, z | [F,,G,A,]2 G,2 [G,,B,]2 z G, | %93
 [C,,B,]C,,/ z [C,,F,G,]/E, C,,2 z2 | F,,>C,, z2 G,,2 z2 | A,, z z/ C,,/ z E,, z/ C,,/ z2 | %96
 F,,C,,/ z C,,/ z G,, z2 z | [C,,F,]4 [E,G,]2 D,>E, | C,, E,4 z2 z | z8 | z8 | z8 | z8 | z8 | z8 | %105
 z8 | z8 | %107

